msx1_to_msx2.cube
TITLE "MSX2 to MSX1 3D LUT (HSL Vector, 8x8x8)"
LUT_3D_SIZE 8
0.000000 0.000000 0.000000
0.000000 0.000000 0.000000
0.000000 0.000000 0.000000
0.000000 0.000000 0.000000
0.666667 0.133333 0.133333
0.666667 0.133333 0.133333
0.666667 0.133333 0.133333
1.000000 0.133333 0.133333
0.000000 0.000000 0.000000
0.000000 0.000000 0.000000
0.000000 0.000000 0.000000
0.000000 0.000000 0.000000
0.666667 0.133333 0.133333
0.666667 0.133333 0.133333
0.666667 0.133333 0.133333
1.000000 0.133333 0.133333
0.000000 0.000000 0.000000
0.000000 0.000000 0.000000
0.000000 0.000000 0.000000
0.666667 0.133333 0.133333
0.666667 0.133333 0.133333
0.666667 0.133333 0.133333
0.666667 0.133333 0.133333
1.000000 0.133333 0.133333
0.133333 0.533333 0.133333
0.133333 0.533333 0.133333
0.133333 0.533333 0.133333
0.133333 0.533333 0.133333
0.666667 0.133333 0.133333
0.666667 0.133333 0.133333
0.666667 0.133333 0.133333
1.000000 0.133333 0.133333
0.133333 0.533333 0.133333
0.133333 0.533333 0.133333
0.133333 0.533333 0.133333
0.133333 0.533333 0.133333
0.666667 0.133333 0.133333
0.666667 0.133333 0.133333
1.000000 0.133333 0.133333
1.000000 0.133333 0.133333
0.133333 0.533333 0.133333
0.133333 0.533333 0.133333
0.133333 0.533333 0.133333
0.133333 0.533333 0.133333
0.133333 0.533333 0.133333
0.866667 0.866667 0.133333
0.866667 0.866667 0.133333
0.866667 0.866667 0.133333
0.133333 0.866667 0.133333
0.133333 0.866667 0.133333
0.133333 0.866667 0.133333
0.133333 0.866667 0.133333
0.866667 0.866667 0.133333
0.866667 0.866667 0.133333
0.866667 0.866667 0.133333
0.866667 0.866667 0.133333
0.133333 0.866667 0.133333
0.133333 0.866667 0.133333
0.133333 0.866667 0.133333
0.133333 0.866667 0.133333
0.866667 0.866667 0.133333
0.866667 0.866667 0.133333
0.866667 0.866667 0.133333
0.866667 0.866667 0.133333
0.000000 0.000000 0.000000
0.000000 0.000000 0.000000
0.000000 0.000000 0.000000
0.000000 0.000000 0.000000
0.666667 0.133333 0.133333
0.666667 0.133333 0.133333
0.666667 0.133333 0.133333
1.000000 0.133333 0.133333
0.000000 0.000000 0.000000
0.000000 0.000000 0.000000
0.000000 0.000000 0.000000
0.666667 0.133333 0.133333
0.666667 0.133333 0.133333
0.666667 0.133333 0.133333
0.666667 0.133333 0.133333
1.000000 0.133333 0.133333
0.000000 0.000000 0.000000
0.000000 0.000000 0.000000
0.133333 0.533333 0.133333
0.666667 0.133333 0.133333
0.666667 0.133333 0.133333
0.666667 0.133333 0.133333
1.000000 0.133333 0.133333
1.000000 0.133333 0.133333
0.133333 0.533333 0.133333
0.133333 0.533333 0.133333
0.133333 0.533333 0.133333
0.133333 0.533333 0.133333
0.666667 0.133333 0.133333
0.666667 0.133333 0.133333
1.000000 0.133333 0.133333
1.000000 0.133333 0.133333
0.133333 0.533333 0.133333
0.133333 0.533333 0.133333
0.133333 0.533333 0.133333
0.133333 0.533333 0.133333
0.666667 0.133333 0.133333
0.666667 0.133333 0.133333
1.000000 0.133333 0.133333
1.000000 0.133333 0.133333
0.133333 0.533333 0.133333
0.133333 0.533333 0.133333
0.133333 0.533333 0.133333
0.133333 0.866667 0.133333
0.866667 0.866667 0.133333
0.866667 0.866667 0.133333
0.866667 0.866667 0.133333
0.866667 0.866667 0.133333
0.133333 0.866667 0.133333
0.133333 0.866667 0.133333
0.133333 0.866667 0.133333
0.133333 0.866667 0.133333
0.866667 0.866667 0.133333
0.866667 0.866667 0.133333
0.866667 0.866667 0.133333
0.866667 0.866667 0.133333
0.133333 0.866667 0.133333
0.133333 0.866667 0.133333
0.133333 0.866667 0.133333
0.133333 0.866667 0.133333
0.866667 0.866667 0.133333
0.866667 0.866667 0.133333
0.866667 0.866667 0.133333
0.866667 0.866667 0.133333
0.000000 0.000000 0.000000
0.000000 0.000000 0.000000
0.000000 0.000000 0.000000
0.666667 0.133333 0.133333
0.666667 0.133333 0.133333
0.666667 0.133333 0.133333
0.666667 0.133333 0.133333
1.000000 0.133333 0.133333
0.000000 0.000000 0.000000
0.000000 0.000000 0.000000
0.000000 0.000000 0.000000
0.666667 0.133333 0.133333
0.666667 0.133333 0.133333
0.666667 0.133333 0.133333
1.000000 0.133333 0.133333
1.000000 0.133333 0.133333
0.000000 0.000000 0.000000
0.133333 0.533333 0.133333
0.133333 0.533333 0.133333
0.666667 0.133333 0.133333
0.666667 0.133333 0.133333
0.666667 0.133333 0.133333
1.000000 0.133333 0.133333
1.000000 0.133333 0.133333
0.133333 0.533333 0.133333
0.133333 0.533333 0.133333
0.133333 0.533333 0.133333
0.133333 0.533333 0.133333
0.666667 0.133333 0.133333
0.666667 0.133333 0.133333
1.000000 0.133333 0.133333
1.000000 0.133333 0.133333
0.133333 0.533333 0.133333
0.133333 0.533333 0.133333
0.133333 0.533333 0.133333
0.133333 0.533333 0.133333
0.666667 0.133333 0.133333
0.666667 0.133333 0.133333
1.000000 0.133333 0.133333
1.000000 0.400000 0.400000
0.133333 0.533333 0.133333
0.133333 0.866667 0.133333
0.133333 0.866667 0.133333
0.133333 0.866667 0.133333
0.866667 0.866667 0.133333
0.866667 0.866667 0.133333
0.866667 0.866667 0.133333
0.866667 0.866667 0.133333
0.133333 0.866667 0.133333
0.133333 0.866667 0.133333
0.133333 0.866667 0.133333
0.400000 1.000000 0.400000
0.400000 1.000000 0.400000
0.866667 0.866667 0.133333
0.866667 0.866667 0.133333
0.866667 0.866667 0.133333
0.133333 0.866667 0.133333
0.133333 0.866667 0.133333
0.133333 0.866667 0.133333
0.400000 1.000000 0.400000
0.400000 1.000000 0.400000
0.866667 0.866667 0.133333
0.866667 0.866667 0.133333
0.866667 0.866667 0.133333
0.000000 0.000000 0.000000
0.000000 0.000000 0.000000
0.000000 0.000000 0.000000
0.666667 0.133333 0.133333
0.666667 0.133333 0.133333
0.666667 0.133333 0.133333
1.000000 0.133333 0.133333
1.000000 0.133333 0.133333
0.000000 0.000000 0.000000
0.000000 0.000000 0.000000
0.133333 0.133333 1.000000
0.666667 0.133333 0.133333
0.666667 0.133333 0.133333
0.666667 0.133333 0.133333
1.000000 0.133333 0.133333
1.000000 0.133333 0.133333
0.133333 0.533333 0.133333
0.133333 0.533333 0.133333
0.133333 0.533333 0.133333
0.666667 0.133333 0.133333
0.666667 0.133333 0.133333
0.666667 0.133333 0.133333
1.000000 0.133333 0.133333
1.000000 0.133333 0.133333
0.133333 0.533333 0.133333
0.133333 0.533333 0.133333
0.133333 0.533333 0.133333
0.666667 0.133333 0.133333
0.666667 0.133333 0.133333
0.666667 0.133333 0.133333
1.000000 0.133333 0.133333
1.000000 0.400000 0.400000
0.133333 0.533333 0.133333
0.133333 0.533333 0.133333
0.133333 0.533333 0.133333
0.400000 1.000000 0.400000
0.400000 1.000000 0.400000
0.866667 0.866667 0.133333
1.000000 0.400000 0.400000
1.000000 0.400000 0.400000
0.133333 0.866667 0.133333
0.133333 0.866667 0.133333
0.133333 0.866667 0.133333
0.400000 1.000000 0.400000
0.400000 1.000000 0.400000
0.866667 0.866667 0.133333
0.866667 0.866667 0.133333
1.000000 0.400000 0.400000
0.133333 0.866667 0.133333
0.133333 0.866667 0.133333
0.400000 1.000000 0.400000
0.400000 1.000000 0.400000
0.400000 1.000000 0.400000
0.866667 0.866667 0.133333
0.866667 0.866667 0.533333
0.866667 0.866667 0.533333
0.133333 0.866667 0.133333
0.133333 0.866667 0.133333
0.400000 1.000000 0.400000
0.400000 1.000000 0.400000
0.400000 1.000000 0.400000
0.866667 0.866667 0.133333
0.866667 0.866667 0.533333
0.866667 0.866667 0.533333
0.000000 0.000000 0.000000
0.133333 0.133333 1.000000
0.133333 0.133333 1.000000
0.133333 0.133333 1.000000
0.866667 0.266667 0.666667
0.866667 0.266667 0.666667
0.866667 0.266667 0.666667
1.000000 0.133333 0.133333
0.133333 0.133333 1.000000
0.133333 0.133333 1.000000
0.133333 0.133333 1.000000
0.133333 0.133333 1.000000
0.866667 0.266667 0.666667
0.866667 0.266667 0.666667
0.866667 0.266667 0.666667
1.000000 0.133333 0.133333
0.133333 0.133333 1.000000
0.133333 0.133333 1.000000
0.133333 0.133333 1.000000
0.133333 0.133333 1.000000
0.866667 0.266667 0.666667
0.866667 0.266667 0.666667
0.866667 0.266667 0.666667
1.000000 0.400000 0.400000
0.133333 0.533333 0.133333
0.133333 0.133333 1.000000
0.133333 0.133333 1.000000
0.866667 0.266667 0.666667
0.866667 0.266667 0.666667
0.866667 0.266667 0.666667
1.000000 0.400000 0.400000
1.000000 0.400000 0.400000
0.133333 0.533333 0.133333
0.133333 0.533333 0.133333
0.400000 1.000000 0.400000
0.400000 1.000000 0.400000
0.866667 0.266667 0.666667
0.866667 0.266667 0.666667
1.000000 0.400000 0.400000
1.000000 0.400000 0.400000
0.133333 0.866667 0.133333
0.133333 0.866667 0.133333
0.400000 1.000000 0.400000
0.400000 1.000000 0.400000
0.400000 1.000000 0.400000
0.866667 0.866667 0.533333
0.866667 0.866667 0.533333
0.866667 0.866667 0.533333
0.133333 0.866667 0.133333
0.400000 1.000000 0.400000
0.400000 1.000000 0.400000
0.400000 1.000000 0.400000
0.400000 1.000000 0.400000
0.866667 0.866667 0.533333
0.866667 0.866667 0.533333
0.866667 0.866667 0.533333
0.133333 0.866667 0.133333
0.400000 1.000000 0.400000
0.400000 1.000000 0.400000
0.400000 1.000000 0.400000
0.400000 1.000000 0.400000
0.866667 0.866667 0.533333
0.866667 0.866667 0.533333
0.866667 0.866667 0.533333
0.133333 0.133333 1.000000
0.133333 0.133333 1.000000
0.133333 0.133333 1.000000
0.133333 0.133333 1.000000
0.866667 0.266667 0.666667
0.866667 0.266667 0.666667
0.866667 0.266667 0.666667
0.866667 0.266667 0.666667
0.133333 0.133333 1.000000
0.133333 0.133333 1.000000
0.133333 0.133333 1.000000
0.133333 0.133333 1.000000
0.866667 0.266667 0.666667
0.866667 0.266667 0.666667
0.866667 0.266667 0.666667
0.866667 0.266667 0.666667
0.133333 0.133333 1.000000
0.133333 0.133333 1.000000
0.133333 0.133333 1.000000
0.133333 0.133333 1.000000
0.866667 0.266667 0.666667
0.866667 0.266667 0.666667
0.866667 0.266667 0.666667
0.866667 0.266667 0.666667
0.133333 0.133333 1.000000
0.133333 0.133333 1.000000
0.133333 0.133333 1.000000
0.133333 0.133333 1.000000
0.866667 0.266667 0.666667
0.866667 0.266667 0.666667
0.866667 0.266667 0.666667
1.000000 0.400000 0.400000
0.133333 0.133333 1.000000
0.133333 0.133333 1.000000
0.133333 0.133333 1.000000
0.266667 0.400000 1.000000
0.866667 0.266667 0.666667
0.866667 0.266667 0.666667
0.866667 0.266667 0.666667
1.000000 0.400000 0.400000
0.266667 0.866667 1.000000
0.266667 0.866667 1.000000
0.266667 0.866667 1.000000
0.400000 1.000000 0.400000
0.666667 0.666667 0.666667
0.666667 0.666667 0.666667
0.666667 0.666667 0.666667
0.666667 0.666667 0.666667
0.266667 0.866667 1.000000
0.266667 0.866667 1.000000
0.266667 0.866667 1.000000
0.266667 0.866667 1.000000
0.666667 0.666667 0.666667
0.666667 0.666667 0.666667
0.666667 0.666667 0.666667
0.666667 0.666667 0.666667
0.266667 0.866667 1.000000
0.266667 0.866667 1.000000
0.266667 0.866667 1.000000
0.266667 0.866667 1.000000
0.400000 1.000000 0.400000
0.666667 0.666667 0.666667
0.666667 0.666667 0.666667
1.000000 1.000000 1.000000
0.133333 0.133333 1.000000
0.133333 0.133333 1.000000
0.133333 0.133333 1.000000
0.133333 0.133333 1.000000
0.133333 0.133333 1.000000
0.866667 0.266667 0.666667
0.866667 0.266667 0.666667
0.866667 0.266667 0.666667
0.133333 0.133333 1.000000
0.133333 0.133333 1.000000
0.133333 0.133333 1.000000
0.133333 0.133333 1.000000
0.133333 0.133333 1.000000
0.866667 0.266667 0.666667
0.866667 0.266667 0.666667
0.866667 0.266667 0.666667
0.133333 0.133333 1.000000
0.133333 0.133333 1.000000
0.133333 0.133333 1.000000
0.133333 0.133333 1.000000
0.266667 0.400000 1.000000
0.866667 0.266667 0.666667
0.866667 0.266667 0.666667
0.866667 0.266667 0.666667
0.133333 0.133333 1.000000
0.133333 0.133333 1.000000
0.133333 0.133333 1.000000
0.266667 0.400000 1.000000
0.266667 0.400000 1.000000
0.866667 0.266667 0.666667
0.866667 0.266667 0.666667
0.866667 0.266667 0.666667
0.133333 0.133333 1.000000
0.133333 0.133333 1.000000
0.133333 0.133333 1.000000
0.266667 0.400000 1.000000
0.266667 0.400000 1.000000
0.866667 0.266667 0.666667
0.666667 0.666667 0.666667
0.666667 0.666667 0.666667
0.266667 0.866667 1.000000
0.266667 0.866667 1.000000
0.266667 0.866667 1.000000
0.266667 0.866667 1.000000
0.266667 0.866667 1.000000
0.666667 0.666667 0.666667
0.666667 0.666667 0.666667
0.666667 0.666667 0.666667
0.266667 0.866667 1.000000
0.266667 0.866667 1.000000
0.266667 0.866667 1.000000
0.266667 0.866667 1.000000
0.266667 0.866667 1.000000
0.666667 0.666667 0.666667
0.666667 0.666667 0.666667
1.000000 1.000000 1.000000
0.266667 0.866667 1.000000
0.266667 0.866667 1.000000
0.266667 0.866667 1.000000
0.266667 0.866667 1.000000
0.266667 0.866667 1.000000
0.666667 0.666667 0.666667
1.000000 1.000000 1.000000
1.000000 1.000000 1.000000
0.133333 0.133333 1.000000
0.133333 0.133333 1.000000
0.133333 0.133333 1.000000
0.133333 0.133333 1.000000
0.133333 0.133333 1.000000
0.866667 0.266667 0.666667
0.866667 0.266667 0.666667
0.866667 0.266667 0.666667
0.133333 0.133333 1.000000
0.133333 0.133333 1.000000
0.133333 0.133333 1.000000
0.133333 0.133333 1.000000
0.133333 0.133333 1.000000
0.866667 0.266667 0.666667
0.866667 0.266667 0.666667
0.866667 0.266667 0.666667
0.133333 0.133333 1.000000
0.133333 0.133333 1.000000
0.133333 0.133333 1.000000
0.133333 0.133333 1.000000
0.266667 0.400000 1.000000
0.266667 0.400000 1.000000
0.866667 0.266667 0.666667
0.866667 0.266667 0.666667
0.133333 0.133333 1.000000
0.133333 0.133333 1.000000
0.133333 0.133333 1.000000
0.266667 0.400000 1.000000
0.266667 0.400000 1.000000
0.266667 0.400000 1.000000
0.866667 0.266667 0.666667
0.866667 0.266667 0.666667
0.133333 0.133333 1.000000
0.133333 0.133333 1.000000
0.266667 0.400000 1.000000
0.266667 0.400000 1.000000
0.266667 0.400000 1.000000
0.266667 0.400000 1.000000
0.666667 0.666667 0.666667
0.666667 0.666667 0.666667
0.266667 0.866667 1.000000
0.266667 0.866667 1.000000
0.266667 0.866667 1.000000
0.266667 0.866667 1.000000
0.266667 0.866667 1.000000
0.666667 0.666667 0.666667
0.666667 0.666667 0.666667
1.000000 1.000000 1.000000
0.266667 0.866667 1.000000
0.266667 0.866667 1.000000
0.266667 0.866667 1.000000
0.266667 0.866667 1.000000
0.266667 0.866667 1.000000
0.666667 0.666667 0.666667
1.000000 1.000000 1.000000
1.000000 1.000000 1.000000
0.266667 0.866667 1.000000
0.266667 0.866667 1.000000
0.266667 0.866667 1.000000
0.266667 0.866667 1.000000
0.266667 0.866667 1.000000
1.000000 1.000000 1.000000
1.000000 1.000000 1.000000
1.000000 1.000000 1.000000