msx2_to_msx1.cube
TITLE "MSX2 to MSX1 3D LUT (HSL Vector, 8x8x8)"
LUT_3D_SIZE 8
0.000000 0.000000 0.000000
0.000000 0.000000 0.000000
0.000000 0.000000 0.000000
0.725490 0.368627 0.317647
0.725490 0.368627 0.317647
0.725490 0.368627 0.317647
0.858824 0.396078 0.349020
0.858824 0.396078 0.349020
0.000000 0.000000 0.000000
0.000000 0.000000 0.000000
0.000000 0.000000 0.000000
0.725490 0.368627 0.317647
0.725490 0.368627 0.317647
0.725490 0.368627 0.317647
0.858824 0.396078 0.349020
0.858824 0.396078 0.349020
0.000000 0.000000 0.000000
0.227451 0.635294 0.254902
0.227451 0.635294 0.254902
0.725490 0.368627 0.317647
0.725490 0.368627 0.317647
0.725490 0.368627 0.317647
0.858824 0.396078 0.349020
0.858824 0.396078 0.349020
0.227451 0.635294 0.254902
0.227451 0.635294 0.254902
0.227451 0.635294 0.254902
0.227451 0.635294 0.254902
0.725490 0.368627 0.317647
0.725490 0.368627 0.317647
0.858824 0.396078 0.349020
0.858824 0.396078 0.349020
0.227451 0.635294 0.254902
0.227451 0.635294 0.254902
0.227451 0.635294 0.254902
0.227451 0.635294 0.254902
0.800000 0.764706 0.368627
0.800000 0.764706 0.368627
0.800000 0.764706 0.368627
0.800000 0.764706 0.368627
0.243137 0.721569 0.286275
0.243137 0.721569 0.286275
0.243137 0.721569 0.286275
0.243137 0.721569 0.286275
0.800000 0.764706 0.368627
0.800000 0.764706 0.368627
0.800000 0.764706 0.368627
0.800000 0.764706 0.368627
0.243137 0.721569 0.286275
0.243137 0.721569 0.286275
0.243137 0.721569 0.286275
0.243137 0.721569 0.286275
0.800000 0.764706 0.368627
0.800000 0.764706 0.368627
0.800000 0.764706 0.368627
0.800000 0.764706 0.368627
0.243137 0.721569 0.286275
0.243137 0.721569 0.286275
0.243137 0.721569 0.286275
0.243137 0.721569 0.286275
0.800000 0.764706 0.368627
0.800000 0.764706 0.368627
0.800000 0.764706 0.368627
0.800000 0.764706 0.368627
0.000000 0.000000 0.000000
0.000000 0.000000 0.000000
0.000000 0.000000 0.000000
0.725490 0.368627 0.317647
0.725490 0.368627 0.317647
0.725490 0.368627 0.317647
0.858824 0.396078 0.349020
0.858824 0.396078 0.349020
0.000000 0.000000 0.000000
0.000000 0.000000 0.000000
0.000000 0.000000 0.000000
0.725490 0.368627 0.317647
0.725490 0.368627 0.317647
0.725490 0.368627 0.317647
0.858824 0.396078 0.349020
0.858824 0.396078 0.349020
0.227451 0.635294 0.254902
0.227451 0.635294 0.254902
0.227451 0.635294 0.254902
0.725490 0.368627 0.317647
0.725490 0.368627 0.317647
0.725490 0.368627 0.317647
0.858824 0.396078 0.349020
0.858824 0.396078 0.349020
0.227451 0.635294 0.254902
0.227451 0.635294 0.254902
0.227451 0.635294 0.254902
0.227451 0.635294 0.254902
0.725490 0.368627 0.317647
0.725490 0.368627 0.317647
1.000000 0.537255 0.490196
1.000000 0.537255 0.490196
0.227451 0.635294 0.254902
0.227451 0.635294 0.254902
0.227451 0.635294 0.254902
0.227451 0.635294 0.254902
0.800000 0.764706 0.368627
0.800000 0.764706 0.368627
0.800000 0.764706 0.368627
1.000000 0.537255 0.490196
0.243137 0.721569 0.286275
0.243137 0.721569 0.286275
0.243137 0.721569 0.286275
0.243137 0.721569 0.286275
0.800000 0.764706 0.368627
0.800000 0.764706 0.368627
0.800000 0.764706 0.368627
0.800000 0.764706 0.368627
0.243137 0.721569 0.286275
0.243137 0.721569 0.286275
0.243137 0.721569 0.286275
0.243137 0.721569 0.286275
0.800000 0.764706 0.368627
0.800000 0.764706 0.368627
0.800000 0.764706 0.368627
0.800000 0.764706 0.368627
0.243137 0.721569 0.286275
0.243137 0.721569 0.286275
0.243137 0.721569 0.286275
0.454902 0.815686 0.490196
0.454902 0.815686 0.490196
0.800000 0.764706 0.368627
0.800000 0.764706 0.368627
0.800000 0.764706 0.368627
0.000000 0.000000 0.000000
0.000000 0.000000 0.000000
0.000000 0.000000 0.000000
0.725490 0.368627 0.317647
0.725490 0.368627 0.317647
0.725490 0.368627 0.317647
0.858824 0.396078 0.349020
0.858824 0.396078 0.349020
0.000000 0.000000 0.000000
0.000000 0.000000 0.000000
0.725490 0.368627 0.317647
0.725490 0.368627 0.317647
0.725490 0.368627 0.317647
0.725490 0.368627 0.317647
0.858824 0.396078 0.349020
0.858824 0.396078 0.349020
0.227451 0.635294 0.254902
0.227451 0.635294 0.254902
0.227451 0.635294 0.254902
0.725490 0.368627 0.317647
0.725490 0.368627 0.317647
0.725490 0.368627 0.317647
1.000000 0.537255 0.490196
1.000000 0.537255 0.490196
0.227451 0.635294 0.254902
0.227451 0.635294 0.254902
0.227451 0.635294 0.254902
0.227451 0.635294 0.254902
0.725490 0.368627 0.317647
1.000000 0.537255 0.490196
1.000000 0.537255 0.490196
1.000000 0.537255 0.490196
0.227451 0.635294 0.254902
0.227451 0.635294 0.254902
0.227451 0.635294 0.254902
0.227451 0.635294 0.254902
0.800000 0.800000 0.800000
1.000000 0.537255 0.490196
1.000000 0.537255 0.490196
1.000000 0.537255 0.490196
0.243137 0.721569 0.286275
0.243137 0.721569 0.286275
0.243137 0.721569 0.286275
0.454902 0.815686 0.490196
0.454902 0.815686 0.490196
0.800000 0.764706 0.368627
0.800000 0.764706 0.368627
0.800000 0.764706 0.368627
0.243137 0.721569 0.286275
0.243137 0.721569 0.286275
0.243137 0.721569 0.286275
0.454902 0.815686 0.490196
0.454902 0.815686 0.490196
0.800000 0.764706 0.368627
0.800000 0.764706 0.368627
0.800000 0.764706 0.368627
0.243137 0.721569 0.286275
0.243137 0.721569 0.286275
0.454902 0.815686 0.490196
0.454902 0.815686 0.490196
0.454902 0.815686 0.490196
0.800000 0.764706 0.368627
0.800000 0.764706 0.368627
0.800000 0.764706 0.368627
0.000000 0.000000 0.000000
0.000000 0.000000 0.000000
0.725490 0.368627 0.317647
0.725490 0.368627 0.317647
0.725490 0.368627 0.317647
0.725490 0.368627 0.317647
0.858824 0.396078 0.349020
0.858824 0.396078 0.349020
0.000000 0.000000 0.000000
0.000000 0.000000 0.000000
0.725490 0.368627 0.317647
0.725490 0.368627 0.317647
0.725490 0.368627 0.317647
0.725490 0.368627 0.317647
0.717647 0.400000 0.709804
1.000000 0.537255 0.490196
0.227451 0.635294 0.254902
0.227451 0.635294 0.254902
0.227451 0.635294 0.254902
0.725490 0.368627 0.317647
0.725490 0.368627 0.317647
0.717647 0.400000 0.709804
1.000000 0.537255 0.490196
1.000000 0.537255 0.490196
0.227451 0.635294 0.254902
0.227451 0.635294 0.254902
0.227451 0.635294 0.254902
0.800000 0.800000 0.800000
0.800000 0.800000 0.800000
1.000000 0.537255 0.490196
1.000000 0.537255 0.490196
1.000000 0.537255 0.490196
0.227451 0.635294 0.254902
0.227451 0.635294 0.254902
0.227451 0.635294 0.254902
0.800000 0.800000 0.800000
0.800000 0.800000 0.800000
0.800000 0.800000 0.800000
1.000000 0.537255 0.490196
1.000000 0.537255 0.490196
0.243137 0.721569 0.286275
0.243137 0.721569 0.286275
0.454902 0.815686 0.490196
0.454902 0.815686 0.490196
0.800000 0.800000 0.800000
0.870588 0.815686 0.529412
0.870588 0.815686 0.529412
0.870588 0.815686 0.529412
0.243137 0.721569 0.286275
0.243137 0.721569 0.286275
0.454902 0.815686 0.490196
0.454902 0.815686 0.490196
0.454902 0.815686 0.490196
0.870588 0.815686 0.529412
0.870588 0.815686 0.529412
0.870588 0.815686 0.529412
0.243137 0.721569 0.286275
0.454902 0.815686 0.490196
0.454902 0.815686 0.490196
0.454902 0.815686 0.490196
0.454902 0.815686 0.490196
0.870588 0.815686 0.529412
0.870588 0.815686 0.529412
0.870588 0.815686 0.529412
0.349020 0.333333 0.878431
0.349020 0.333333 0.878431
0.349020 0.333333 0.878431
0.725490 0.368627 0.317647
0.717647 0.400000 0.709804
0.717647 0.400000 0.709804
0.717647 0.400000 0.709804
0.717647 0.400000 0.709804
0.349020 0.333333 0.878431
0.349020 0.333333 0.878431
0.349020 0.333333 0.878431
0.717647 0.400000 0.709804
0.717647 0.400000 0.709804
0.717647 0.400000 0.709804
0.717647 0.400000 0.709804
0.717647 0.400000 0.709804
0.349020 0.333333 0.878431
0.349020 0.333333 0.878431
0.501961 0.462745 0.945098
0.717647 0.400000 0.709804
0.717647 0.400000 0.709804
0.717647 0.400000 0.709804
0.717647 0.400000 0.709804
0.717647 0.400000 0.709804
0.227451 0.635294 0.254902
0.501961 0.462745 0.945098
0.501961 0.462745 0.945098
0.800000 0.800000 0.800000
0.800000 0.800000 0.800000
0.717647 0.400000 0.709804
0.717647 0.400000 0.709804
1.000000 0.537255 0.490196
0.227451 0.635294 0.254902
0.227451 0.635294 0.254902
0.800000 0.800000 0.800000
0.800000 0.800000 0.800000
0.800000 0.800000 0.800000
0.800000 0.800000 0.800000
0.800000 0.800000 0.800000
1.000000 0.537255 0.490196
0.243137 0.721569 0.286275
0.454902 0.815686 0.490196
0.454902 0.815686 0.490196
0.800000 0.800000 0.800000
0.800000 0.800000 0.800000
0.800000 0.800000 0.800000
0.870588 0.815686 0.529412
0.870588 0.815686 0.529412
0.243137 0.721569 0.286275
0.454902 0.815686 0.490196
0.454902 0.815686 0.490196
0.454902 0.815686 0.490196
0.800000 0.800000 0.800000
0.870588 0.815686 0.529412
0.870588 0.815686 0.529412
0.870588 0.815686 0.529412
0.454902 0.815686 0.490196
0.454902 0.815686 0.490196
0.454902 0.815686 0.490196
0.454902 0.815686 0.490196
0.454902 0.815686 0.490196
0.870588 0.815686 0.529412
0.870588 0.815686 0.529412
0.870588 0.815686 0.529412
0.349020 0.333333 0.878431
0.349020 0.333333 0.878431
0.349020 0.333333 0.878431
0.349020 0.333333 0.878431
0.717647 0.400000 0.709804
0.717647 0.400000 0.709804
0.717647 0.400000 0.709804
0.717647 0.400000 0.709804
0.349020 0.333333 0.878431
0.349020 0.333333 0.878431
0.349020 0.333333 0.878431
0.349020 0.333333 0.878431
0.717647 0.400000 0.709804
0.717647 0.400000 0.709804
0.717647 0.400000 0.709804
0.717647 0.400000 0.709804
0.349020 0.333333 0.878431
0.349020 0.333333 0.878431
0.501961 0.462745 0.945098
0.501961 0.462745 0.945098
0.717647 0.400000 0.709804
0.717647 0.400000 0.709804
0.717647 0.400000 0.709804
0.717647 0.400000 0.709804
0.501961 0.462745 0.945098
0.501961 0.462745 0.945098
0.501961 0.462745 0.945098
0.501961 0.462745 0.945098
0.800000 0.800000 0.800000
0.717647 0.400000 0.709804
0.717647 0.400000 0.709804
0.717647 0.400000 0.709804
0.501961 0.462745 0.945098
0.501961 0.462745 0.945098
0.501961 0.462745 0.945098
0.800000 0.800000 0.800000
0.800000 0.800000 0.800000
0.800000 0.800000 0.800000
0.800000 0.800000 0.800000
0.717647 0.400000 0.709804
0.396078 0.858824 0.937255
0.396078 0.858824 0.937255
0.396078 0.858824 0.937255
0.800000 0.800000 0.800000
0.800000 0.800000 0.800000
0.800000 0.800000 0.800000
0.800000 0.800000 0.800000
0.870588 0.815686 0.529412
0.396078 0.858824 0.937255
0.396078 0.858824 0.937255
0.396078 0.858824 0.937255
0.800000 0.800000 0.800000
0.800000 0.800000 0.800000
0.800000 0.800000 0.800000
0.870588 0.815686 0.529412
0.870588 0.815686 0.529412
0.396078 0.858824 0.937255
0.396078 0.858824 0.937255
0.396078 0.858824 0.937255
0.454902 0.815686 0.490196
0.800000 0.800000 0.800000
0.870588 0.815686 0.529412
0.870588 0.815686 0.529412
0.870588 0.815686 0.529412
0.349020 0.333333 0.878431
0.349020 0.333333 0.878431
0.349020 0.333333 0.878431
0.349020 0.333333 0.878431
0.717647 0.400000 0.709804
0.717647 0.400000 0.709804
0.717647 0.400000 0.709804
0.717647 0.400000 0.709804
0.349020 0.333333 0.878431
0.349020 0.333333 0.878431
0.349020 0.333333 0.878431
0.349020 0.333333 0.878431
0.717647 0.400000 0.709804
0.717647 0.400000 0.709804
0.717647 0.400000 0.709804
0.717647 0.400000 0.709804
0.349020 0.333333 0.878431
0.349020 0.333333 0.878431
0.501961 0.462745 0.945098
0.501961 0.462745 0.945098
0.717647 0.400000 0.709804
0.717647 0.400000 0.709804
0.717647 0.400000 0.709804
0.717647 0.400000 0.709804
0.501961 0.462745 0.945098
0.501961 0.462745 0.945098
0.501961 0.462745 0.945098
0.501961 0.462745 0.945098
0.800000 0.800000 0.800000
0.717647 0.400000 0.709804
0.717647 0.400000 0.709804
0.717647 0.400000 0.709804
0.501961 0.462745 0.945098
0.501961 0.462745 0.945098
0.501961 0.462745 0.945098
0.501961 0.462745 0.945098
0.800000 0.800000 0.800000
0.800000 0.800000 0.800000
0.800000 0.800000 0.800000
0.717647 0.400000 0.709804
0.396078 0.858824 0.937255
0.396078 0.858824 0.937255
0.396078 0.858824 0.937255
0.396078 0.858824 0.937255
0.800000 0.800000 0.800000
0.800000 0.800000 0.800000
0.800000 0.800000 0.800000
1.000000 1.000000 1.000000
0.396078 0.858824 0.937255
0.396078 0.858824 0.937255
0.396078 0.858824 0.937255
0.396078 0.858824 0.937255
0.800000 0.800000 0.800000
0.800000 0.800000 0.800000
1.000000 1.000000 1.000000
1.000000 1.000000 1.000000
0.396078 0.858824 0.937255
0.396078 0.858824 0.937255
0.396078 0.858824 0.937255
0.396078 0.858824 0.937255
0.396078 0.858824 0.937255
1.000000 1.000000 1.000000
1.000000 1.000000 1.000000
1.000000 1.000000 1.000000
0.349020 0.333333 0.878431
0.349020 0.333333 0.878431
0.349020 0.333333 0.878431
0.349020 0.333333 0.878431
0.349020 0.333333 0.878431
0.717647 0.400000 0.709804
0.717647 0.400000 0.709804
0.717647 0.400000 0.709804
0.349020 0.333333 0.878431
0.349020 0.333333 0.878431
0.349020 0.333333 0.878431
0.349020 0.333333 0.878431
0.501961 0.462745 0.945098
0.717647 0.400000 0.709804
0.717647 0.400000 0.709804
0.717647 0.400000 0.709804
0.349020 0.333333 0.878431
0.349020 0.333333 0.878431
0.501961 0.462745 0.945098
0.501961 0.462745 0.945098
0.501961 0.462745 0.945098
0.717647 0.400000 0.709804
0.717647 0.400000 0.709804
0.717647 0.400000 0.709804
0.501961 0.462745 0.945098
0.501961 0.462745 0.945098
0.501961 0.462745 0.945098
0.501961 0.462745 0.945098
0.501961 0.462745 0.945098
0.717647 0.400000 0.709804
0.717647 0.400000 0.709804
0.717647 0.400000 0.709804
0.501961 0.462745 0.945098
0.501961 0.462745 0.945098
0.501961 0.462745 0.945098
0.501961 0.462745 0.945098
0.501961 0.462745 0.945098
0.800000 0.800000 0.800000
0.800000 0.800000 0.800000
1.000000 1.000000 1.000000
0.396078 0.858824 0.937255
0.396078 0.858824 0.937255
0.396078 0.858824 0.937255
0.396078 0.858824 0.937255
0.396078 0.858824 0.937255
0.800000 0.800000 0.800000
1.000000 1.000000 1.000000
1.000000 1.000000 1.000000
0.396078 0.858824 0.937255
0.396078 0.858824 0.937255
0.396078 0.858824 0.937255
0.396078 0.858824 0.937255
0.396078 0.858824 0.937255
1.000000 1.000000 1.000000
1.000000 1.000000 1.000000
1.000000 1.000000 1.000000
0.396078 0.858824 0.937255
0.396078 0.858824 0.937255
0.396078 0.858824 0.937255
0.396078 0.858824 0.937255
0.396078 0.858824 0.937255
1.000000 1.000000 1.000000
1.000000 1.000000 1.000000
1.000000 1.000000 1.000000